build/images/SVG/1/target.svg

<svg xmlns="http://www.w3.org/2000/svg" width="32" height="32" viewBox="0 0 32 32"><title>target</title><path d="M16 27C9.925 27 5 22.075 5 16S9.925 5 16 5s11 4.925 11 11-4.925 11-11 11zm0-1c5.523 0 10-4.477 10-10S21.523 6 16 6 6 10.477 6 16s4.477 10 10 10zm0-3a7 7 0 1 1 0-14 7 7 0 0 1 0 14zm0-1a6 6 0 1 0 0-12 6 6 0 0 0 0 12zm0-3a3 3 0 1 1 0-6 3 3 0 0 1 0 6zm0-1a2 2 0 1 0 .001-3.999A2 2 0 0 0 16 18z"/></svg>

<!-- Generated by IcoMoon.io -->
<svg version="1.1" xmlns="http://www.w3.org/2000/svg" width="32" height="32" viewBox="0 0 32 32">
<title>target</title>
<path d="M16 27v0c-6.075 0-11-4.925-11-11s4.925-11 11-11c6.075 0 11 4.925 11 11s-4.925 11-11 11zM16 26c5.523 0 10-4.477 10-10s-4.477-10-10-10c-5.523 0-10 4.477-10 10s4.477 10 10 10v0zM16 23v0c-3.866 0-7-3.134-7-7s3.134-7 7-7c3.866 0 7 3.134 7 7s-3.134 7-7 7zM16 22c3.314 0 6-2.686 6-6s-2.686-6-6-6c-3.314 0-6 2.686-6 6s2.686 6 6 6v0zM16 19v0c-1.657 0-3-1.343-3-3s1.343-3 3-3c1.657 0 3 1.343 3 3s-1.343 3-3 3zM16 18c1.105 0 2-0.895 2-2s-0.895-2-2-2c-1.105 0-2 0.895-2 2s0.895 2 2 2v0z"></path>
</svg>
